X: 1411
T: Lady Forbes   #2
R: reel
%S: s:2 b:11(5+6)
B: O'Neill's 1850 #1411
O: J.O'Neill
Z: Transcribed by Bob Safranek, rjs@gsp.org
N: Compacted via repeats and multiple endings [JC]
M: C|
L: 1/8
K: D
"^A"|:::  DFAd BAGF |1 Eeed cBAE :|2 GBAG FDDF :|3 Eeef gecA :|4 GBAG FDD2 |]
"^B"|::{e}dcdA dfed |1 cAeA fAeA :|2 cdef dcBA :|3 cdef gfec || dBAG FAdB | AGFE FDD2 |]
